src/assets/icons/github-inverted.svg

<svg width="16" height="16" viewBox="0 0 16 16" fill="none" xmlns="http://www.w3.org/2000/svg">
<path fill-rule="evenodd" clip-rule="evenodd" d="M7.97553 0C3.57186 0 0 3.57186 0 7.97553C0 11.4985 2.29969 14.4832 5.43119 15.5596C5.82263 15.6086 5.96942 15.3639 5.96942 15.1682C5.96942 14.9725 5.96942 14.4832 5.96942 13.7982C3.76758 14.2875 3.27829 12.7217 3.27829 12.7217C2.93578 11.792 2.39755 11.5474 2.39755 11.5474C1.66361 11.0581 2.44648 11.0581 2.44648 11.0581C3.22936 11.107 3.66972 11.8899 3.66972 11.8899C4.40367 13.1131 5.52905 12.7706 5.96942 12.5749C6.01835 12.0367 6.263 11.6942 6.45872 11.4985C4.69725 11.3028 2.83792 10.6177 2.83792 7.53517C2.83792 6.65443 3.1315 5.96942 3.66972 5.38226C3.62079 5.23547 3.32722 4.40367 3.76758 3.32722C3.76758 3.32722 4.4526 3.1315 5.96942 4.15902C6.6055 3.9633 7.29052 3.91437 7.97553 3.91437C8.66055 3.91437 9.34557 4.01223 9.98165 4.15902C11.4985 3.1315 12.1835 3.32722 12.1835 3.32722C12.6239 4.40367 12.3303 5.23547 12.2813 5.43119C12.7706 5.96942 13.1131 6.70336 13.1131 7.5841C13.1131 10.6667 11.2538 11.3028 9.49235 11.4985C9.78593 11.7431 10.0306 12.2324 10.0306 12.9664C10.0306 14.0428 10.0306 14.8746 10.0306 15.1682C10.0306 15.3639 10.1774 15.6086 10.5688 15.5596C13.7492 14.4832 16 11.4985 16 7.97553C15.9511 3.57186 12.3792 0 7.97553 0Z" fill="#C5C5C5"/>
</svg>

<svg width="16" height="16" fill="none" xmlns="http://www.w3.org/2000/svg"><path fill-rule="evenodd" clip-rule="evenodd" d="M7.976 0A7.977 7.977 0 0 0 0 7.976c0 3.522 2.3 6.507 5.431 7.584.392.049.538-.196.538-.392v-1.37c-2.201.49-2.69-1.076-2.69-1.076-.343-.93-.881-1.175-.881-1.175-.734-.489.048-.489.048-.489.783.049 1.224.832 1.224.832.734 1.223 1.859.88 2.3.685.048-.538.293-.88.489-1.076-1.762-.196-3.621-.881-3.621-3.964 0-.88.293-1.566.832-2.153-.05-.147-.343-.978.098-2.055 0 0 .685-.196 2.201.832.636-.196 1.322-.245 2.007-.245s1.37.098 2.006.245c1.517-1.027 2.202-.832 2.202-.832.44 1.077.146 1.908.097 2.104a3.16 3.16 0 0 1 .832 2.153c0 3.083-1.86 3.719-3.62 3.915.293.244.538.733.538 1.467v2.202c0 .196.146.44.538.392A7.984 7.984 0 0 0 16 7.976C15.951 3.572 12.38 0 7.976 0Z" fill="#C5C5C5"/></svg>
